X:2
T:2 The College Hornpipe
C:Welch MS
I:abc2nwc
M:C
L:1/8
K:D
fe|d2D2DEFG|A2d2d2cd|e2E2EFGA|B2e2e2dc|
defg a2gf|gefd c2BA|BcdB cdeg|f2d2d2:|
AG|FAdA FAdA|B2G2G2B2|GBdB GBdB|c2A2A2dc|
defg a2gf|gefd c2BA|BcdB cdeg|f2d2d2:|


